X: 17723
T: Home Ruler, The
R: hornpipe
M: 4/4
K: Dmajor
|:(3[A,A][B,G][CF]|D2 F>A D2 F>A|d>fe>d B2 d>B|A2- A>B A>FD>E|F>DE>D (3[B,B][Cc][Dd] [A,3/2A3/2][B,/B/]|
D2 F>A D>A (3FGA|d2 (3fed B2 d>B|A2- A>B A>FD>E|(3FGF D2 D2:|
|:(3ABc|d2 (3ddd d2 (3ddd|a>db>d a>fe>d|e>fe>d B>AF>A|f>de>d (3Bcd A>B|
d2 (3ddd d2- d>f|a>db>d a2 (3fed|e2 (3fed B2 (3dcB|A>FE>F D2:|

